public/image/logo-l.svg

<?xml version="1.0" encoding="UTF-8" standalone="no"?>
<svg
   width="200px"
   height="67px"
   viewBox="0 0 200 67"
   version="1.1"
   id="svg87"
   sodipodi:docname="logo-l.svg"
   inkscape:version="1.2.1 (9c6d41e410, 2022-07-14)"
   xmlns:inkscape="http://www.inkscape.org/namespaces/inkscape"
   xmlns:sodipodi="http://sodipodi.sourceforge.net/DTD/sodipodi-0.dtd"
   xmlns="http://www.w3.org/2000/svg"
   xmlns:svg="http://www.w3.org/2000/svg">
  <sodipodi:namedview
     id="namedview89"
     pagecolor="#ffffff"
     bordercolor="#000000"
     borderopacity="0.25"
     inkscape:showpageshadow="2"
     inkscape:pageopacity="0.0"
     inkscape:pagecheckerboard="0"
     inkscape:deskcolor="#d1d1d1"
     showgrid="false"
     inkscape:lockguides="true"
     inkscape:zoom="3.605"
     inkscape:cx="68.793343"
     inkscape:cy="71.151179"
     inkscape:window-width="1920"
     inkscape:window-height="1001"
     inkscape:window-x="-9"
     inkscape:window-y="-9"
     inkscape:window-maximized="1"
     inkscape:current-layer="svg87" />
  <title
     id="title51">nightingale</title>
  <defs
     id="defs63">
    <linearGradient
       x1="-4.3044332e-15"
       y1="12.02643"
       x2="24.05286"
       y2="12.02643"
       id="linearGradient-1"
       gradientUnits="userSpaceOnUse">
      <stop
         stop-color="#6C53B1"
         stop-opacity="0.08"
         offset="0%"
         id="stop53" />
      <stop
         stop-color="#6C53B1"
         stop-opacity="0.8"
         offset="100%"
         id="stop55" />
    </linearGradient>
    <radialGradient
       cx="19.242288"
       cy="12.02643"
       fx="19.242288"
       fy="12.02643"
       r="14.431716"
       id="radialGradient-2"
       gradientUnits="userSpaceOnUse">
      <stop
         stop-color="#6C53B1"
         stop-opacity="0.4"
         offset="0%"
         id="stop58" />
      <stop
         stop-color="#6C53B1"
         offset="100%"
         id="stop60" />
    </radialGradient>
  </defs>
  <!-- <g
     transform="translate(130.84756,0.881904)"
     id="g81"
     style="fill:none;fill-rule:evenodd;stroke:none;stroke-width:1">
    <rect
       id="蒙版"
       x="0"
       y="0.0605985"
       width="61.575321"
       height="61.575321" />
    <g
       transform="rotate(45,15.442287,37.280978)"
       id="g79">
      <path
         d="m 54.118936,15.033038 c 0,3.321007 -2.692208,6.013215 -6.013215,6.013215 -0.252746,0 -0.501849,-0.01559 -0.746401,-0.04587 -2.653272,10.397039 -12.081996,18.085515 -23.30646,18.085515 v 0 H 0.46875 C 0.20986652,39.085898 0,38.876032 0,38.617148 v 0 -11.55768 c 0,-6.642014 5.3844162,-12.02643 12.02643,-12.02643 v 0 z"
         id="形状结合"
         fill="#ffffff" />
      <path
         d="m 24.05286,21.046253 c 6.642014,0 12.02643,-5.384416 12.02643,-12.0264304 -4.479845,0 -16.506275,0 -24.05286,0 0,6.6420144 5.384416,12.0264304 12.02643,12.0264304 z"
         id="椭圆形"
         fill="#ffffff"
         transform="rotate(-90,24.05286,15.033038)" />
      <path
         d="m 15.033038,3.0066075 c 1.660503,0 3.006607,-1.346104 3.006607,-3.0066075 -1.119961,0 -4.126569,0 -6.013215,0 0,1.6605035 1.346104,3.0066075 3.006608,3.0066075 z"
         id="path68"
         fill="#ffffff"
         transform="rotate(180,15.033038,1.503304)" />
      <g
         id="eye"
         transform="translate(0,15.033038)">
        <circle
           id="circle70"
           fill="url(#linearGradient-1)"
           cx="12.02643"
           cy="12.02643"
           r="12.02643"
           style="fill:url(#linearGradient-1)" />
        <circle
           id="circle72"
           fill="#ffffff"
           cx="12.02643"
           cy="12.02643"
           r="9.6211443" />
        <circle
           id="circle74"
           fill="url(#radialGradient-2)"
           cx="12.02643"
           cy="12.02643"
           r="7.215858"
           style="fill:url(#radialGradient-2)" />
        <circle
           id="circle76"
           fill="#ffffff"
           cx="7.215858"
           cy="12.02643"
           r="2.4052861" />
      </g>
    </g>
  </g> -->
  <text
     xml:space="preserve"
     style="font-weight:bold;font-size:32px;font-family:sans-serif;-inkscape-font-specification:'sans-serif Bold';fill:#f2f2f2"
     x="4.2496529"
     y="45.506241"
     id="text389"><tspan
       sodipodi:role="line"
       id="tspan387"
       x="45.2496529"
       y="45.506241"
       style="font-size:32px;fill:#f2f2f2">监控平台</tspan></text>
</svg>

<?xml version="1.0" encoding="UTF-8"?>
<svg width="200px" height="67px" viewBox="0 0 200 67" version="1.1" xmlns="http://www.w3.org/2000/svg" xmlns:xlink="http://www.w3.org/1999/xlink">
    <title>nightingale</title>
    <defs>
        <linearGradient x1="-1.78957223e-14%" y1="50%" x2="100%" y2="50%" id="linearGradient-1">
            <stop stop-color="#6C53B1" stop-opacity="0.08" offset="0%"></stop>
            <stop stop-color="#6C53B1" stop-opacity="0.8" offset="100%"></stop>
        </linearGradient>
        <radialGradient cx="100%" cy="50%" fx="100%" fy="50%" r="100%" id="radialGradient-2">
            <stop stop-color="#6C53B1" stop-opacity="0.4" offset="0%"></stop>
            <stop stop-color="#6C53B1" offset="100%"></stop>
        </radialGradient>
    </defs>
    <g id="页面-1" stroke="none" stroke-width="1" fill="none" fill-rule="evenodd">
        <g id="nightingale" transform="translate(-0.000000, 0.881904)">
            <g transform="translate(130.847560, 0.000000)">
                <rect id="蒙版" x="0" y="0.0605985009" width="61.5753224" height="61.5753224"></rect>
                <g transform="translate(36.199555, 32.952885) rotate(45.000000) translate(-36.199555, -32.952885) translate(9.140087, 13.409936)">
                    <path d="M54.1189357,15.0330377 C54.1189357,18.3540447 51.4267276,21.0462528 48.1057207,21.0462528 C47.8529751,21.0462528 47.6038716,21.0306596 47.3593196,21.0003827 C44.7060478,31.3974223 35.2773239,39.085898 24.0528603,39.085898 L24.0528603,39.085898 L0.46875,39.085898 C0.209866524,39.085898 -2.7827431e-13,38.8760315 -2.76426935e-13,38.617148 L-2.76426935e-13,38.617148 L-2.75719231e-13,27.0594679 C-2.74092407e-13,20.4174539 5.38441619,15.0330377 12.0264302,15.0330377 L12.0264302,15.0330377 Z" id="形状结合" fill="#FFFFFF"></path>
                    <path d="M24.0528603,21.0462528 C30.6948743,21.0462528 36.0792905,15.6618366 36.0792905,9.01982262 C31.5994453,9.01982262 19.5730151,9.01982262 12.0264302,9.01982262 C12.0264302,15.6618366 17.4108464,21.0462528 24.0528603,21.0462528 Z" id="椭圆形" fill="#FFFFFF" transform="translate(24.052860, 15.033038) scale(-1, -1) rotate(90.000000) translate(-24.052860, -15.033038) "></path>
                    <path d="M15.0330377,3.00660754 C16.6935412,3.00660754 18.0396452,1.66050349 18.0396452,-7.53665378e-15 C16.9196839,-7.53665378e-15 13.9130764,-7.53665378e-15 12.0264302,-7.53665378e-15 C12.0264302,1.66050349 13.3725342,3.00660754 15.0330377,3.00660754 Z" id="椭圆形" fill="#FFFFFF" transform="translate(15.033038, 1.503304) rotate(180.000000) translate(-15.033038, -1.503304) "></path>
                    <g id="eye" transform="translate(0.000000, 15.033038)">
                        <circle id="椭圆形" fill="url(#linearGradient-1)" cx="12.0264302" cy="12.0264302" r="12.0264302"></circle>
                        <circle id="椭圆形" fill="#FFFFFF" cx="12.0264302" cy="12.0264302" r="9.62114413"></circle>
                        <circle id="椭圆形" fill="url(#radialGradient-2)" cx="12.0264302" cy="12.0264302" r="7.2158581"></circle>
                        <circle id="椭圆形" fill="#FFFFFF" cx="7.2158581" cy="12.0264302" r="2.40528603"></circle>
                    </g>
                </g>
            </g>
            <g id="text" transform="translate(0.000000, 26.743238)" fill="#FFFFFF" fill-rule="nonzero">
                <path d="M70.9086,7.7265351 C74.0339153,7.7265351 76.567484,10.2689031 76.567484,13.4050729 L76.567484,26.232983 L72.9334194,26.232983 L72.9334194,13.5937272 C72.9334194,12.4715665 72.0268769,11.5618754 70.9086,11.5618754 C69.790323,11.5618754 68.8837806,12.4715665 68.8837806,13.5937272 L68.8837806,13.5937272 L68.8837806,26.232983 L65.2497159,26.232983 L65.2497159,13.4050729 C65.2497159,10.2689031 67.7832846,7.7265351 70.9086,7.7265351 Z M39.905337,0.0744726275 L39.9053796,8.09988746 C40.533385,7.85868298 41.2151597,7.7265351 41.9276922,7.7265351 C45.0530076,7.7265351 47.5865763,10.2689031 47.5865763,13.4050729 L47.5865763,26.232983 L43.9525116,26.232983 L43.9525116,13.5937272 C43.9525116,12.4715665 43.0459692,11.5618754 41.9276922,11.5618754 C40.8839671,11.5618754 40.0246862,12.3543174 39.9147541,13.3723346 L39.905337,13.5298146 L39.905337,26.232983 L36.2688082,26.232983 L36.2688082,0.0744726275 L39.905337,0.0744726275 Z M125.716283,18.0782303 L118.220581,18.0782303 L118.220581,20.5730633 C118.220581,21.1688444 118.387565,21.6280923 118.721532,21.9508069 C119.055499,22.2735216 119.506972,22.434879 120.075953,22.434879 C120.793364,22.434879 121.269575,22.2238733 121.504589,21.8018617 C121.739603,21.3798501 121.881848,20.9578386 121.931325,20.535827 L125.716283,20.535827 C125.716283,22.199049 125.209148,23.5395563 124.194878,24.5573489 C123.700113,25.0786573 123.106394,25.4882568 122.413722,25.7861473 C121.721049,26.0840378 120.941793,26.232983 120.075953,26.232983 C118.888515,26.232983 117.88043,25.984741 117.051697,25.4882568 C116.222964,24.9917725 115.585953,24.333931 115.140664,23.5147321 C114.868543,23.0182479 114.683006,22.4472912 114.584052,21.8018617 C114.485099,21.1564322 114.435623,19.9276338 114.435623,19.1580834 L114.435623,14.2801263 C114.435623,13.5105758 114.485099,12.8030859 114.584052,12.1576564 C114.683006,11.512227 114.868543,10.9412702 115.140664,10.444786 C115.585953,9.6255871 116.222964,8.96774557 117.051697,8.47126138 C117.88043,7.97477719 118.888515,7.7265351 120.075953,7.7265351 C120.941793,7.7265351 121.727234,7.87548036 122.432275,8.17337087 C123.137317,8.47126138 123.73722,8.88086083 124.231986,9.40216922 C125.221517,10.5192586 125.716283,11.9218264 125.716283,13.6098727 L125.716283,18.0782303 Z M118.220581,15.0993252 L121.931325,15.0993252 L121.931325,14.8014347 C121.931325,14.0815326 121.764341,12.4245167 121.430374,12.0645657 C121.096408,11.7046146 120.644934,11.5246391 120.075953,11.5246391 C119.506972,11.5246391 119.055499,11.7046146 118.721532,12.0645657 C118.387565,12.4245167 118.220581,14.0815326 118.220581,14.8014347 L118.220581,15.0993252 Z M50.7444191,7.80100773 L50.7444191,5.36226308 L50.7444191,4.65609063 L54.5293776,1.99214279 L54.5293776,7.80100773 L57.4200469,7.80100773 L57.4200469,10.7799128 L54.5293776,10.7799128 L54.5293776,20.7964812 C54.5293776,21.243317 54.5726695,21.590856 54.6592536,21.839098 C54.7458377,22.08734 54.8880827,22.2735216 55.0859891,22.3976427 C55.2838955,22.5217638 55.5250939,22.5962364 55.8095841,22.6210606 C56.0940744,22.6458847 56.4465951,22.6582969 56.8671461,22.6582969 L56.8671461,26.232983 L55.3086338,26.232983 C54.4427935,26.232983 53.7191985,26.0964499 53.1378487,25.8233836 C52.556499,25.5503172 52.092656,25.2027784 51.7463199,24.7807668 C51.3999837,24.3587552 51.1464164,23.8808893 50.9856174,23.3471687 C50.8248185,22.8134482 50.7444191,22.2983459 50.7444191,21.8018617 L50.7444191,10.7799128 L48.2916176,10.7799128 L48.2916176,7.80100773 L50.7444191,7.80100773 Z M85.4361613,7.61482616 C88.5102418,7.61482616 91.0022767,10.115516 91.0022767,13.2002732 L91.0022767,20.647536 C91.0022767,20.7723527 90.9981967,20.8962133 90.9901633,21.0189905 L91.0022767,21.0198991 L91.0022767,27.8155264 C91.0022767,31.1573466 88.4670607,33.8664273 85.3397131,33.8664273 C82.3963616,33.8664273 79.9775156,31.4667443 79.7030629,28.3983761 C79.702126,28.387899 81.0062484,28.3721741 81.9858066,28.3681038 L82.7357769,28.3680436 C82.927223,28.3693767 83.0454585,28.372215 83.0464834,28.3770152 C83.2851857,29.4948532 84.2212909,30.3289775 85.3397131,30.3289775 C86.5623504,30.3289775 87.5671109,29.3321627 87.6810875,28.0575885 L87.691855,27.8155264 L87.6924622,25.7550304 C87.0028077,26.0622702 86.2393515,26.232983 85.4361613,26.232983 L85.2506241,26.232983 C82.1765435,26.232983 79.6845086,23.7322931 79.6845086,20.647536 L79.6845086,13.2002732 C79.6845086,10.115516 82.1765435,7.61482616 85.2506241,7.61482616 L85.4361613,7.61482616 Z M85.3433927,11.152276 C84.243555,11.152276 83.3380773,11.9873211 83.2222351,13.0600689 L83.2097151,13.293364 L83.2097151,20.5544452 C83.2097151,21.7369355 84.164995,22.6955332 85.3433927,22.6955332 C86.4432304,22.6955332 87.348708,21.860488 87.4645502,20.7877404 L87.4770703,20.5544452 L87.4770703,13.293364 C87.4770703,12.1108737 86.5217903,11.152276 85.3433927,11.152276 Z M0,26.2255358 L0,2.36450592 L3.27287588,2.36450592 L8.41596655,16.7414467 L8.48275993,16.7414467 L8.48275993,2.36450592 L11.8892226,2.36450592 L11.8892226,26.2255358 L8.68314009,26.2255358 L3.47325603,11.8821077 L3.40646265,11.8821077 L3.40646265,26.2255358 L0,26.2255358 Z M97.0865791,13.4179102 L93.8590951,12.6656007 C94.2503053,10.9102152 94.8963168,9.64819224 95.7971297,8.87952963 C96.6979427,8.11086701 97.9925396,7.7265351 99.6809203,7.7265351 C101.183991,7.7265351 102.331884,7.95004624 103.124599,8.39706988 C103.917315,8.84409352 104.48354,9.45193658 104.823275,10.2205992 C105.16301,10.9892618 105.332878,12.7413193 105.332878,14.7692802 L105.301993,20.1335639 C105.301993,20.7864665 105.311745,22.8071941 105.331248,26.1957467 L102.134508,26.1957467 L102.120836,23.9441679 C101.513431,24.707379 100.862272,25.2797874 100.167359,25.661393 C99.4724464,26.0429985 98.7337799,26.2338013 97.9513596,26.2338013 C96.6438939,26.2338013 95.5732134,25.7676972 94.739318,24.8354895 C93.9054226,23.9032815 93.4884749,22.6630635 93.4884749,21.1148353 C93.4884749,20.1335639 93.6583426,19.2776771 93.9980777,18.5471751 C94.3378128,17.8166731 94.8165306,17.2333618 95.4342308,16.7972411 C96.051931,16.3611205 97.0402516,15.9740634 98.3991922,15.63607 C100.046393,15.2326584 101.194286,14.8565043 101.842871,14.5076078 C101.842871,13.5481425 101.778528,12.5647486 101.64984,12.2649156 C101.521152,11.9650827 101.284367,11.719765 100.939485,11.5289622 C100.594602,11.3381595 100.108163,11.2427583 99.4801678,11.2427583 C98.8418774,11.2427583 98.339996,11.3954005 97.9745233,11.7006849 C97.6090505,12.0059694 97.3130692,12.578378 97.0865791,13.4179102 Z M101.842871,17.5004856 C101.389891,17.6967399 100.684683,17.9257032 99.7272478,18.1873756 C98.6256822,18.4926601 97.9050321,18.8306535 97.5652968,19.2013561 C97.2255617,19.5720587 97.055694,20.0517913 97.055694,20.6405542 C97.055694,21.3056381 97.2435779,21.8644176 97.6193456,22.3168928 C97.9951133,22.769368 98.4661097,22.9956056 99.032335,22.9956056 C99.5367902,22.9956056 100.036098,22.8129801 100.530258,22.4477291 C101.024418,22.0824779 101.366727,21.6490831 101.557185,21.1475444 C101.747643,20.6460057 101.842871,19.7356039 101.842871,18.416339 L101.842871,17.5004856 Z M27.6227756,7.61482616 C30.6968561,7.61482616 33.188891,10.115516 33.188891,13.2002732 L33.188891,20.647536 C33.188891,20.7723527 33.184811,20.8962133 33.1767776,21.0189905 L33.188891,21.0198991 L33.188891,27.8155264 C33.188891,31.1573466 30.653675,33.8664273 27.5263274,33.8664273 C24.5829759,33.8664273 22.1641299,31.4667443 21.8896772,28.3983761 C21.8887402,28.387899 23.1928627,28.3721741 24.1724209,28.3681038 L24.9223912,28.3680436 C25.1138373,28.3693767 25.2320728,28.372215 25.2330977,28.3770152 C25.4718,29.4948532 26.4079052,30.3289775 27.5263274,30.3289775 C28.7489647,30.3289775 29.7537252,29.3321627 29.8677018,28.0575885 L29.8784693,27.8155264 L29.8790765,25.7550304 C29.189422,26.0622702 28.4259658,26.232983 27.6227756,26.232983 L27.4372384,26.232983 C24.3631578,26.232983 21.8711229,23.7322931 21.8711229,20.647536 L21.8711229,13.2002732 C21.8711229,10.115516 24.3631578,7.61482616 27.4372384,7.61482616 L27.6227756,7.61482616 Z M27.530007,11.152276 C26.4301693,11.152276 25.5246916,11.9873211 25.4088494,13.0600689 L25.3963294,13.293364 L25.3963294,20.5544452 C25.3963294,21.7369355 26.3516093,22.6955332 27.530007,22.6955332 C28.6298447,22.6955332 29.5353223,21.860488 29.6511645,20.7877404 L29.6636846,20.5544452 L29.6636846,13.293364 C29.6636846,12.1108737 28.7084046,11.152276 27.530007,11.152276 Z M14.9357431,26.232983 L14.9357431,7.7265351 L18.7207016,7.7265351 L18.7207016,26.232983 L14.9357431,26.232983 Z M16.8245116,0.0930907843 C17.9516745,0.0930907843 18.8654206,1.01001039 18.8654206,2.14108804 C18.8654206,3.27216568 17.9516745,4.1890853 16.8245116,4.1890853 C15.6973487,4.1890853 14.7836026,3.27216568 14.7836026,2.14108804 C14.7836026,1.01001039 15.6973487,0.0930907843 16.8245116,0.0930907843 Z M107.644962,0 L111.42992,0 L111.42992,20.6847723 C111.42992,21.4046744 111.559796,21.8949525 111.819548,22.1556067 C112.079301,22.4162609 112.567882,22.5838243 113.285292,22.6582969 L113.285292,26.232983 C112.419452,26.232983 111.640196,26.1647164 110.947524,26.0281833 C110.254852,25.8916502 109.661133,25.6247898 109.166367,25.2276026 C108.671601,24.8552394 108.294342,24.327725 108.03459,23.6450592 C107.774838,22.9623934 107.644962,22.0625159 107.644962,20.9454265 L107.644962,0 Z M58.388551,26.2143649 L58.388551,7.70791694 L62.1735095,7.70791694 L62.1735095,26.2143649 L58.388551,26.2143649 Z M60.2773195,0.0558544706 C61.4044823,0.0558544706 62.3182285,0.972774074 62.3182285,2.10385173 C62.3182285,3.23492937 61.4044823,4.15184898 60.2773195,4.15184898 C59.1501566,4.15184898 58.2364105,3.23492937 58.2364105,2.10385173 C58.2364105,0.972774074 59.1501566,0.0558544706 60.2773195,0.0558544706 Z" id="Nightingale"></path>
            </g>
        </g>
    </g>
</svg>
